src/actions/16/path-mode-polyline-paraxial.svg

<svg xmlns="http://www.w3.org/2000/svg" viewBox="0 0 16 16">
    <path d="M2 2v3h1v6H2v3h3v-1h4v1h3v-3H9v1H5v-1H4V5h1V4h6v1h3V2h-3v1H5V2H2zm1 1h1v1H3V3zm9 0h1v1h-1V3zm-9 9h1v1H3v-1zm7 0h1v1h-1v-1z" style="fill:currentColor;fill-opacity:1;stroke:none;color:#050505;opacity:.7"/>
</svg>

<svg xmlns="http://www.w3.org/2000/svg" viewBox="0 0 16 16">
  <defs id="defs3051">
    <style type="text/css" id="current-color-scheme">
      .ColorScheme-Text {
        color:#363636;
      }
      </style>
  </defs>
 <path style="fill:currentColor;fill-opacity:1;stroke:none" 
     d="M 2 2 L 2 5 L 3 5 L 3 11 L 2 11 L 2 14 L 5 14 L 5 13 L 9 13 L 9 14 L 12 14 L 12 11 L 9 11 L 9 12 L 5 12 L 5 11 L 4 11 L 4 5 L 5 5 L 5 4 L 11 4 L 11 5 L 14 5 L 14 2 L 11 2 L 11 3 L 5 3 L 5 2 L 2 2 z M 3 3 L 4 3 L 4 4 L 3 4 L 3 3 z M 12 3 L 13 3 L 13 4 L 12 4 L 12 3 z M 3 12 L 4 12 L 4 13 L 3 13 L 3 12 z M 10 12 L 11 12 L 11 13 L 10 13 L 10 12 z "
     class="ColorScheme-Text"
     />
</svg>
